X:3
T:Vals e. Spel Erik
C:Medelpad
N: taught by Eva Marqvardsen, 2/27/04
Q:1/4=120     %Tempo
M:3/4     %Meter
L:1/8   %ref note value
K:Gm
d3  e dc |(B2G2) G2 |(G^F) (FA) dF |(G^F) (GA) BG |
d3  e dc |(B2G2) G2 |(G^F) (FA) dF |G2 G4 :|
K:Dm
|:(AF) (DF) Ad |dd (^cd) (fd) |(d^c) (ce) ac |(d^c) (de) fd |
(AF) (DF) Ad |dd (^cd) (fd) |(d^c) (ce) ac | d2 d4 :|
K:D
|:v(F2 A2) A2 |A2 (GF) GA |(_B2 G2) G2 |G4 d2 |
(d2 c2) c2 |c3 e de |(=f2 d2) d2 |d4 ud2 |
"pizz"[g2_B2D2G,2] z "arco"d _BA |G3 _B AG |(GF) FA (dF) |vG6 :|
